packages/match-logos/mono/svg/vivino.svg

<svg fill="none" height="22" viewBox="0 0 125 22" width="125" xmlns="http://www.w3.org/2000/svg" xmlns:xlink="http://www.w3.org/1999/xlink"><clipPath id="a"><path d="m0 0h125v22h-125z"/></clipPath><g clip-path="url(#a)"><path clip-rule="evenodd" d="m26.87 21.937h5.5699v-21.776996h-5.5699zm36.84.006 5.56-.012v-21.759003h-5.56zm-63.7300195-21.791999h5.5899695l5.45005 12.554999h.38l5.5399-12.558997 5.7101-.007995-9.52 21.799992-3.54003.012zm36.7700195.018005 5.5699.006989 5.4301 12.534005h.41l5.49-12.540994 5.71.006989-9.47 21.761005-3.56.011zm39.72-.018005h3.92c.5.7.93 1.330989 1.37 1.899989h.38c5.56-4.223 14.08-1.577004 14.08 5.585l-.01 14.30501h-5.42l-.05-13.42299c-.27-4.463-6.9-5.10001-8.19-.56101-.3675 1.43898-.5059 2.9269-.41 4.409l.01 9.586-5.7101-.011zm37-.1619873c6.35 0 11.53 4.9439663 11.53 10.9829863-.069 2.9914-1.322 5.8333-3.483 7.9023-2.162 2.0691-5.056 3.1964-8.047 3.1347v-4.57c1.663-.0209 3.25-.696 4.418-1.8791 1.168-1.183 1.824-2.7787 1.824-4.4414 0-1.66266-.656-3.25839-1.824-4.44144s-2.755-1.85814-4.418-1.87906zm0 22.0199863c-2.992.0617-5.885-1.0656-8.047-3.1347-2.161-2.069-3.414-4.9109-3.483-7.9023 0-6.03902 5.18-10.9829863 11.53-10.9829863v4.8109763c-1.663.02091-3.25.69604-4.418 1.87909s-1.823 2.77877-1.823 4.44142c0 1.6627.655 3.2584 1.823 4.4414 1.168 1.1831 2.755 1.8582 4.418 1.8791v4.57z" fill="#1f304c" fill-rule="evenodd"/></g></svg>

<svg width="125" height="22" viewBox="0 0 125 22" fill="none" xmlns="http://www.w3.org/2000/svg">
<g clip-path="url(#clip0)">
<path fill-rule="evenodd" clip-rule="evenodd" d="M26.87 21.937H32.4399V0.160004H26.87V21.937ZM63.71 21.943L69.27 21.931V0.171997H63.71V21.943V21.943ZM-0.0200195 0.151001H5.56995L11.02 12.706H11.4L16.9399 0.147003L22.65 0.139008L13.13 21.939L9.58997 21.951L-0.0200195 0.151001ZM36.75 0.169006L42.3199 0.175995L47.75 12.71H48.16L53.65 0.169006L59.36 0.175995L49.89 21.937L46.33 21.948L36.75 0.169006ZM76.47 0.151001H80.39C80.89 0.851001 81.32 1.48199 81.76 2.05099H82.14C87.7 -2.17201 96.22 0.473986 96.22 7.63599L96.21 21.941H90.79L90.74 8.51801C90.47 4.05501 83.84 3.418 82.55 7.957C82.1825 9.39598 82.0441 10.8839 82.14 12.366L82.15 21.952L76.4399 21.941L76.47 0.151001ZM113.47 -0.0109863C119.82 -0.0109863 125 4.93298 125 10.972C124.931 13.9634 123.678 16.8053 121.517 18.8743C119.355 20.9434 116.461 22.0707 113.47 22.009V17.439C115.133 17.4181 116.72 16.743 117.888 15.5599C119.056 14.3769 119.712 12.7812 119.712 11.1185C119.712 9.45584 119.056 7.86011 117.888 6.67706C116.72 5.49401 115.133 4.81892 113.47 4.798V-0.0109863V-0.0109863ZM113.47 22.009C110.478 22.0707 107.585 20.9434 105.423 18.8743C103.262 16.8053 102.009 13.9634 101.94 10.972C101.94 4.93298 107.12 -0.0109863 113.47 -0.0109863V4.79999C111.807 4.8209 110.22 5.49603 109.052 6.67908C107.884 7.86213 107.229 9.45785 107.229 11.1205C107.229 12.7832 107.884 14.3789 109.052 15.5619C110.22 16.745 111.807 17.4201 113.47 17.441V22.011V22.009Z" fill="#1F304C"/>
</g>
<defs>
<clipPath id="clip0">
<rect width="125" height="22" fill="white"/>
</clipPath>
</defs>
</svg>
